hosted/assets/icon/widgets/dark-mode/plotly-3D.svg

<svg width="50" height="50" viewBox="0 0 50 50" fill="none" xmlns="http://www.w3.org/2000/svg">
<circle cx="25" cy="25" r="22" fill="#78768B"/>
<path d="M25 2C12.3093 2 2 12.3093 2 25C2 37.6907 12.3093 48 25 48C37.6907 48 48 37.6907 48 25C48 12.3093 37.6907 2 25 2ZM25 4C36.6098 4 46 13.3902 46 25C46 36.6098 36.6098 46 25 46C13.3902 46 4 36.6098 4 25C4 13.3902 13.3902 4 25 4ZM16.8066 15.998C11.7696 15.998 11.319 20.523 11.293 21.623H13.4219C13.4539 20.865 13.8096 17.9141 16.8066 17.9141C19.6136 17.9141 20 19.8282 20 20.7852C20 21.2642 19.7093 23.6582 16.6113 23.6582H15.7402V25.4766C16.1272 25.3806 16.514 25.3809 16.998 25.3809C17.481 25.3809 20.7734 25.4774 20.7734 28.7324C20.7734 31.8914 17.3853 32.1797 16.9023 32.1797C15.1863 32.1797 13.1987 31.148 13.1387 28.373H11C11.019 29.755 11.4443 34 16.9023 34C17.9673 34 23 33.7137 23 28.6387C23 25.4797 20.8706 24.5201 19.8066 24.3281V24.2324C20.4846 23.8504 22.2266 22.7005 22.2266 20.6895C22.2266 19.9235 22.0336 15.998 16.8066 15.998ZM26 16V34H31.5059C36.8579 34 40 30.6701 40 24.9941C40 19.3311 36.8449 16 31.5059 16H26ZM28 18H31.5059C36.8739 18 38 21.8031 38 24.9941C38 28.1901 36.8739 32 31.5059 32H28V18Z" fill="white"/>
</svg>

<svg width="50" height="50" fill="none" xmlns="http://www.w3.org/2000/svg"><circle cx="25" cy="25" r="22" fill="#78768B"/><path d="M25 2C12.31 2 2 12.31 2 25s10.31 23 23 23 23-10.31 23-23S37.69 2 25 2zm0 2c11.61 0 21 9.39 21 21s-9.39 21-21 21S4 36.61 4 25 13.39 4 25 4zm-8.193 11.998c-5.037 0-5.488 4.525-5.514 5.625h2.129c.032-.758.388-3.709 3.385-3.709 2.807 0 3.193 1.914 3.193 2.871 0 .48-.29 2.873-3.389 2.873h-.87v1.819c.386-.096.773-.096 1.257-.096.483 0 3.775.096 3.775 3.351 0 3.16-3.388 3.448-3.87 3.448-1.717 0-3.704-1.032-3.764-3.807H11c.019 1.382.444 5.627 5.902 5.627C17.967 34 23 33.714 23 28.639c0-3.16-2.13-4.119-3.193-4.31v-.097c.678-.382 2.42-1.531 2.42-3.543 0-.765-.193-4.691-5.42-4.691zM26 16v18h5.506C36.858 34 40 30.67 40 24.994 40 19.331 36.845 16 31.506 16H26zm2 2h3.506C36.874 18 38 21.803 38 24.994 38 28.19 36.874 32 31.506 32H28V18z" fill="#fff"/></svg>
